icons/terminal-16.svg

<svg width="16" height="16" viewBox="0 0 16 16" xmlns="http://www.w3.org/2000/svg">
  <path fill-rule="evenodd" clip-rule="evenodd" d="M0 2.75C0 1.7835 0.783502 1 1.75 1H14.25C15.2165 1 16 1.7835 16 2.75V13.25C16 14.2165 15.2165 15 14.25 15H1.75C0.783501 15 0 14.2165 0 13.25V2.75ZM1.75 2.5C1.61193 2.5 1.5 2.61193 1.5 2.75V13.25C1.5 13.3881 1.61193 13.5 1.75 13.5H14.25C14.3881 13.5 14.5 13.3881 14.5 13.25V2.75C14.5 2.61193 14.3881 2.5 14.25 2.5H1.75ZM7.25001 7.99999C7.25001 8.19891 7.17099 8.38968 7.03034 8.53033L4.78034 10.7803C4.48745 11.0732 4.01257 11.0732 3.71968 10.7803C3.42679 10.4874 3.42679 10.0126 3.71968 9.71967L5.43934 8.00001L3.71969 6.2804C3.42679 5.98751 3.42678 5.51263 3.71967 5.21974C4.01256 4.92684 4.48743 4.92683 4.78033 5.21972L7.03033 7.46966C7.17099 7.61031 7.25001 7.80108 7.25001 7.99999ZM8.75 9.5C8.33579 9.5 8 9.83579 8 10.25C8 10.6642 8.33579 11 8.75 11H11.75C12.1642 11 12.5 10.6642 12.5 10.25C12.5 9.83579 12.1642 9.5 11.75 9.5H8.75Z"/>
</svg>

<svg xmlns="http://www.w3.org/2000/svg" width="16" height="16" viewBox="0 0 16 16"><path fill-rule="evenodd" d="M0 2.75C0 1.784.784 1 1.75 1h12.5c.966 0 1.75.784 1.75 1.75v10.5A1.75 1.75 0 0114.25 15H1.75A1.75 1.75 0 010 13.25V2.75zm1.75-.25a.25.25 0 00-.25.25v10.5c0 .138.112.25.25.25h12.5a.25.25 0 00.25-.25V2.75a.25.25 0 00-.25-.25H1.75zM7.25 8a.75.75 0 01-.22.53l-2.25 2.25a.75.75 0 11-1.06-1.06L5.44 8 3.72 6.28a.75.75 0 111.06-1.06l2.25 2.25c.141.14.22.331.22.53zm1.5 1.5a.75.75 0 000 1.5h3a.75.75 0 000-1.5h-3z"/></svg>
